public/assets/images/utils/rocket-02.svg

<svg width="20" height="20" viewBox="0 0 20 20" fill="none" xmlns="http://www.w3.org/2000/svg">
<path d="M9.99967 12.5L7.49967 10M9.99967 12.5C11.1637 12.0573 12.2804 11.499 13.333 10.8334M9.99967 12.5V16.6667C9.99967 16.6667 12.5247 16.2084 13.333 15C14.233 13.65 13.333 10.8334 13.333 10.8334M7.49967 10C7.94313 8.84957 8.50151 7.74676 9.16634 6.70838C10.1373 5.15587 11.4894 3.87758 13.0938 2.99512C14.6983 2.11266 16.5019 1.65535 18.333 1.66671C18.333 3.93338 17.683 7.91671 13.333 10.8334M7.49967 10H3.33301C3.33301 10 3.79134 7.47504 4.99967 6.66671C6.34967 5.76671 9.16634 6.66671 9.16634 6.66671M3.74967 13.75C2.49967 14.8 2.08301 17.9167 2.08301 17.9167C2.08301 17.9167 5.19967 17.5 6.24967 16.25C6.84134 15.55 6.83301 14.475 6.17467 13.825C5.85076 13.5159 5.42409 13.3372 4.97653 13.3234C4.52897 13.3096 4.09207 13.4615 3.74967 13.75Z" stroke="white" stroke-width="1.25" stroke-linecap="round" stroke-linejoin="round"/>
</svg>

<svg xmlns="http://www.w3.org/2000/svg" fill="none" viewBox="0 0 20 20"><path stroke="#fff" stroke-linecap="round" stroke-linejoin="round" stroke-width="1.25" d="M10 12.5 7.5 10m2.5 2.5a18.6 18.6 0 0 0 3.333-1.667M10 12.5v4.167s2.525-.459 3.333-1.667c.9-1.35 0-4.167 0-4.167M7.5 10a18.3 18.3 0 0 1 1.666-3.292 10.73 10.73 0 0 1 9.167-5.041c0 2.266-.65 6.25-5 9.166M7.5 10H3.333S3.791 7.475 5 6.667c1.35-.9 4.166 0 4.166 0M3.75 13.75c-1.25 1.05-1.667 4.167-1.667 4.167S5.2 17.5 6.25 16.25c.591-.7.583-1.775-.075-2.425a1.817 1.817 0 0 0-2.425-.075"/></svg>
